X:1
T:O salutaris hostia - Martini
T:James Gibb editions
%%score { 1 | 2 } 3
L:1/8
Q:1/4=84
M:4/4
K:F
V:1 treble-8 nm="Tenor I" snm="T"
V:2 treble-8 
V:3 bass nm="Bass" snm="B"
V:1
"^O salutaris hostia""^Giovanni Battista Martini\n(1706-84)"!p! d4 d2 d2 | %1
w: O sa- lu-|
!<(! (Bc) d2!<)! d2!>)!!>(! c2 | d4 z2!mf! d2 | B2 B2 _e3 d | %4
w: ta\- * ris ho- sti-|a Quae|coe- li pan- dis|
[M:4/4][K:treble-8]!<(! (c4 d_e!<)! f2- | f2 _e4 d2 |!>(! c3) c!>)! B4 | z2!f! f_e d2 dd | %8
w: o\- * * *||* sti- um:|bel- la pre- munt ho-|
 d>c c2 z2!p! dc | B2 cB B>A A2 | z!mf! GBG _e2 e2 | _e>d d3 ccc | c2 B2 BA/A/!>(! AA | %13
w: sti- li- a, bel- la|pre- munt ho- sti- li- a,|Da ro- bur, fer au-|xi- li- um, da ro- bur,|fer au- xi- li- um, fer au-|
 A>G G2!>)! z dcB |[Q:1/4=83] A2[Q:1/4=81] A2[Q:1/4=79] !>!A3[Q:1/4=78] A | %15
w: xi- li- um, da ro- bur,|fer au- xi- li-|
[Q:1/4=77] A2[Q:1/4=75] B[Q:1/4=75]c[Q:1/4=74]!>(! (B2[Q:1/4=72] A>)[Q:1/4=72]G!>)! | %16
w: um, fer au- xi\- * li-|
[Q:1/4=72] !fermata!G8 |] %17
w: um.|
V:2
!p! B4 A2 A2 | B3 A G3!>(! G | ^F4!>)! z2!mf! B2 | G2 G2 c3 B | %4
w: O sa- lu-|ta- ris ho- sti-|a Quae|coe- li pan- dis|
[M:4/4][K:treble-8]!<(! (AB c4 B!<)!A | G3 F/G/ A2 B2- |!>(! B2) A2!>)! B4 | z2!f! dc B2 BB | %8
w: o\- * * * *||* sti- um:|bel- la pre- munt ho-|
 B>A A2 z2!p! BA | G2 AG G>^F F2 | z8 | z!mf! GBG _e2 e2 | _e>d d4 cc | c>B B2 z BAG | %14
w: sti- li- a, bel- la|pre- munt ho- sti- li- a,||Da ro- bur fer au-|xi- li- um, fer au-|xi- li- um, da ro- bur,|
 G2 G2 !>!G3 G | ^F2 GA!>(! (G2 F>)G!>)! | !fermata!G8 |] %17
w: fer au- xi- li-|um, fer au- xi\- * li-|um.|
V:3
!p! G,4 ^F,2 F,2 |!<(! G,3 =F,!<)! _E,3!>(! E, | D,4!>)! z2!mf! B,,2 | _E,2 E,2 C,3 C, | %4
w: O sa- lu-|ta- ris ho- sti-|a Quae|coe- li pan- dis|
[M:4/4]!<(! (F,3 _E,!<)! D,4 | _E,4 F,4- |!>(! F,2) F,2!>)! B,,4 | z2!f! B,,C, D,2 D,_E, | %8
w: o\- * *||* sti- um:|bel- la pre- munt ho-|
 F,>F, F,2 z2!p! D,D, | _E,2 C,C, D,>D, D,2 | z8 | z8 | z!mf! G,B,G, !courtesy!=E,2!>(! ^F,2 | %13
w: sti- li- a, bel- la|pre- munt ho- sti- li- a,|||a ro- bur fer au-|
 G,>G, G,2!>)! z G,,A,,B,, | C,2 C,2"^2-" !>!^C,3 C, | D,2 G,=C,!>(! D,3 D,!>)! | !fermata!G,8 |] %17
w: xi- li- um, da ro- bur,|fer au- xi- li-|um, fer au- xi- li-|um.|

